modules/feathericon/icons/fast-backward.svg

<?xml version="1.0" encoding="UTF-8"?>
<svg width="24px" height="24px" viewBox="0 0 24 24" version="1.1" xmlns="http://www.w3.org/2000/svg" xmlns:xlink="http://www.w3.org/1999/xlink">
    <!-- Generator: sketchtool 52.2 (67145) - http://www.bohemiancoding.com/sketch -->
    <title>fast-backward</title>
    <desc>Created with sketchtool.</desc>
    <g id="media-player" stroke="none" stroke-width="1" fill="none" fill-rule="evenodd">
        <g id="fast-backward" fill="#000000">
            <path d="M5,11.99947 C4.99999993,11.8925745 5.02309284,11.7841824 5.07173409,11.684095 C5.12346458,11.577651 5.20028993,11.4899057 5.2934869,11.4308222 L12.1533324,7.08193038 C12.4285884,6.90742807 12.7755846,7.02082217 12.92837,7.33520318 C12.9753487,7.43186966 13,7.54060804 13,7.65116756 L13,11.9994697 C12.9999999,11.8925745 13.0230928,11.7841824 13.0717341,11.684095 C13.1234646,11.577651 13.2002899,11.4899057 13.2934869,11.4308222 L20.1533324,7.08193038 C20.4285884,6.90742807 20.7755846,7.02082217 20.92837,7.33520318 C20.9753487,7.43186966 21,7.54060804 21,7.65116756 L21,16.3489513 C21,16.7085156 20.744791,17 20.4299748,17 C20.3331745,17 20.2379686,16.9718448 20.1533324,16.9181884 L13.2934869,12.5692966 C13.1058623,12.4503494 13.0000001,12.2283402 13,11.99947 L13,16.3489513 C13,16.7085156 12.744791,17 12.4299748,17 C12.3331745,17 12.2379686,16.9718448 12.1533324,16.9181884 L5.2934869,12.5692966 C5.10586226,12.4503494 5.00000015,12.2283402 5,11.99947 L5,16 C5,16.5522847 4.5,17 4,17 C3.5,17 3,16.5522847 3,16 L3,8 C3,7.44771525 3.44771525,7 4,7 C4.55228475,7 5,7.44771525 5,8 L5,11.9994698 Z" id="Shape"></path>
        </g>
    </g>
</svg>

<svg width="24" height="24" viewBox="0 0 24 24" xmlns="http://www.w3.org/2000/svg"><path d="M5 12c0-.107.023-.216.072-.316a.617.617 0 0 1 .221-.253l6.86-4.35c.276-.174.623-.06.775.254a.725.725 0 0 1 .072.316V12c0-.106.023-.215.072-.315a.617.617 0 0 1 .221-.253l6.86-4.35c.276-.174.623-.06.775.254a.725.725 0 0 1 .072.316v8.698c0 .36-.255.651-.57.651a.516.516 0 0 1-.277-.082l-6.86-4.349A.671.671 0 0 1 13 12v4.35c0 .36-.255.651-.57.651a.516.516 0 0 1-.277-.082l-6.86-4.349A.671.671 0 0 1 5 12V16c0 .552-.5 1-1 1s-1-.448-1-1V8a1 1 0 1 1 2 0v4z" fill="#000" fill-rule="evenodd"/></svg>
